X:EJ-24
T:"Aben hedder Jocko"
T:(Totakt-pols, nr. EJ-24)
R:Totakt-pols
O:Boes, Århus amt, Danmark
N:Melodin med stämma, såsom den (med variationer) spelas på CD:n Totakt-pols.
N:Andrastämman av Åke Persson
M:2/4
L:1/8
Q:1/4=100
K:D
V:1
|: d2 d(c1/2d1/2) | (ed) d2 | f(e1/2f1/2) g(f1/2g1/2) | a2 a2 | bg g(f1/2g1/2) | af f(e1/2f1/2) | gedc | d2 D2 :|

|: dfaf | (dB) B2 | gee>d | (cA) A2 | dd f(e1/2f1/2) | a2 a2 | bgec | d2 D2 :|

V:2
|: F2 F(E1/F1/2) | (GF) F2 | d(c1/2d1/2) e(d1/2e1/2) | f2 f2 | ge e(d1/2e1/2) | fd d(c1/2d1/2) | ecAG | F2 F2 :|

|: FAdA | (GB) B2 | A(cc)>B | (AE) E2 | FF A(F1/2A1/2) | d2 d2 | ecAG | F2 F2 :|

(:musicend:)
Titeln här kommer från
en svensk barnvisa som andra reprisen ger associationer till. Den har
en annan melodi men påminner om andrareprisen här, och texten låter
"Spelman har en apa med, som är bunden i en kjed, apan heter Jocko,
kommer från Marocko". Låten lämpar sig väl för spel på större
grupp.

Ingår i kategorin [[!andrastämma]].

(:music:)
